src/assets/images/messager_telegram.svg

<svg fill="none" height="70" viewBox="0 0 71 70" width="71" xmlns="http://www.w3.org/2000/svg"><path d="m70.1621 0h-69.999991v70h69.999991z" fill="#61a8de"/><path d="m51.4391 19.1826-37.8748 14.7584c-.2689.1046-.4984.2907-.6561.5323-.1577.2417-.2358.5266-.2233.8149s.115.5654.2931.7924c.178.2271.4227.3926.6997.4735l9.6318 2.8414 3.5825 11.4043c.0857.2723.2404.5177.4492.7123.2088.1945.4645.3317.7421.398.2776.0664.5676.0597.8418-.0195.2742-.0791.5233-.228.7228-.4321l4.9713-5.08 9.7623 7.1664c.2749.2016.5961.3311.934.3765.338.0453.6819.0052 1.0003-.1167.3184-.122.6012-.3219.8223-.5814.2212-.2595.3737-.5704.4436-.9041l6.4673-30.915c.072-.3437.0498-.7005-.0644-1.0326-.1141-.3321-.3158-.6271-.5839-.854-.2681-.2268-.5924-.377-.9388-.4346s-.702-.0205-1.029.1074zm-4.7475 6.8619-17.5921 15.5569c-.174.1554-.2847.3694-.3107.6013l-.6773 6.0214c-.0038.0423-.0222.0819-.0521.112-.0299.0302-.0694.0489-.1116.0529-.0423.0041-.0846-.0068-.1197-.0306-.0351-.0239-.0607-.0593-.0724-.1001l-2.787-8.9794c-.0628-.2005-.057-.4163.0164-.6132s.2103-.3637.3891-.4742l20.7721-12.8818c.0975-.0467.2083-.0581.3134-.0321.105.0261.1977.0878.2622.1747.0644.0869.0967.1935.0911.3015-.0055.1081-.0484.2109-.1214.2907z" fill="#fff"/></svg>

<svg width="71" height="70" viewBox="0 0 71 70" fill="none" xmlns="http://www.w3.org/2000/svg">
<path d="M70.1621 0H0.162109V70H70.1621V0Z" fill="#61A8DE"/>
<path d="M51.4391 19.1826L13.5643 33.941C13.2954 34.0456 13.0659 34.2317 12.9082 34.4733C12.7505 34.715 12.6724 34.9999 12.6849 35.2882C12.6974 35.5765 12.7999 35.8536 12.978 36.0806C13.156 36.3077 13.4007 36.4732 13.6777 36.5541L23.3095 39.3955L26.892 50.7998C26.9777 51.0721 27.1324 51.3175 27.3412 51.5121C27.55 51.7066 27.8057 51.8438 28.0833 51.9101C28.3609 51.9765 28.6509 51.9698 28.9251 51.8906C29.1993 51.8115 29.4484 51.6626 29.6479 51.4585L34.6192 46.3785L44.3815 53.5449C44.6564 53.7465 44.9776 53.876 45.3155 53.9214C45.6535 53.9667 45.9974 53.9266 46.3158 53.8047C46.6342 53.6827 46.917 53.4828 47.1381 53.2233C47.3593 52.9638 47.5118 52.6529 47.5817 52.3192L54.049 21.4042C54.121 21.0605 54.0988 20.7037 53.9846 20.3716C53.8705 20.0395 53.6688 19.7445 53.4007 19.5176C53.1326 19.2908 52.8083 19.1406 52.4619 19.083C52.1155 19.0254 51.7599 19.0625 51.4329 19.1904L51.4391 19.1826ZM46.6916 26.0445L29.0995 41.6014C28.9255 41.7568 28.8148 41.9708 28.7888 42.2027L28.1115 48.2241C28.1077 48.2664 28.0893 48.306 28.0594 48.3361C28.0295 48.3663 27.99 48.385 27.9478 48.389C27.9055 48.3931 27.8632 48.3822 27.8281 48.3584C27.793 48.3345 27.7674 48.2991 27.7557 48.2583L24.9687 39.2789C24.9059 39.0784 24.9117 38.8626 24.9851 38.6657C25.0585 38.4688 25.1954 38.302 25.3742 38.1915L46.1463 25.3097C46.2438 25.263 46.3546 25.2516 46.4597 25.2776C46.5647 25.3037 46.6574 25.3654 46.7219 25.4523C46.7863 25.5392 46.8186 25.6458 46.813 25.7538C46.8075 25.8619 46.7646 25.9647 46.6916 26.0445Z" fill="white"/>
</svg>
